svgs/duotone/house-medical-circle-check.svg

<svg xmlns="http://www.w3.org/2000/svg" viewBox="0 0 640 512"><!--! Font Awesome Pro 6.6.0 by @fontawesome - https://fontawesome.com License - https://fontawesome.com/license (Commercial License) Copyright 2024 Fonticons, Inc. --><defs><style>.fa-secondary{opacity:.4}</style></defs><path class="fa-secondary" d="M0 255.5c0 18 14 32.1 32 32.1l32 0 0 160.4c0 35.3 28.7 64 64 64l266.7 0C349.5 480.1 320 427.5 320 368c0 8.8-7.2 16-16 16l-32 0c-8.8 0-16-7.2-16-16l0-48-48 0c-8.8 0-16-7.2-16-16l0-32c0-8.8 7.2-16 16-16l48 0 0-48c0-8.8 7.2-16 16-16l32 0c8.8 0 16 7.2 16 16l0 48 40.2 0c32.3-39.1 81.1-64 135.8-64c8.9 0 17.6 .7 26.1 1.9L309.5 7c-6-5-14-7-21-7s-15 1-22 8L10 231.5c-7 7-10 15-10 24zM320 352l0 16c0-5.4 .2-10.7 .7-16l-.7 0z"/><path class="fa-primary" d="M496 512a144 144 0 1 0 0-288 144 144 0 1 0 0 288zm67.3-164.7l-72 72c-6.2 6.2-16.4 6.2-22.6 0l-40-40c-6.2-6.2-6.2-16.4 0-22.6s16.4-6.2 22.6 0L480 385.4l60.7-60.7c6.2-6.2 16.4-6.2 22.6 0s6.2 16.4 0 22.6z"/></svg>

<svg xmlns="http://www.w3.org/2000/svg" viewBox="0 0 640 512"><!--! Font Awesome Pro 6.4.0 by @fontawesome - https://fontawesome.com License - https://fontawesome.com/license (Commercial License) Copyright 2023 Fonticons, Inc. --><defs><style>.fa-secondary{opacity:.4}</style></defs><path class="fa-primary" d="M496 512a144 144 0 1 0 0-288 144 144 0 1 0 0 288zm67.3-164.7l-72 72c-6.2 6.2-16.4 6.2-22.6 0l-40-40c-6.2-6.2-6.2-16.4 0-22.6s16.4-6.2 22.6 0L480 385.4l60.7-60.7c6.2-6.2 16.4-6.2 22.6 0s6.2 16.4 0 22.6z"/><path class="fa-secondary" d="M394.8 512C349.5 480.1 320 427.5 320 368c0-5.4 .2-10.7 .7-16H320v16c0 8.8-7.2 16-16 16H272c-8.8 0-16-7.2-16-16V320H208c-8.8 0-16-7.2-16-16V272c0-8.8 7.2-16 16-16h48V208c0-8.8 7.2-16 16-16h32c8.8 0 16 7.2 16 16v48h40.2c32.3-39.1 81.1-64 135.8-64c8.9 0 17.6 .7 26.1 1.9L309.5 7c-6-5-14-7-21-7s-15 1-22 8L10 231.5c-7 7-10 15-10 24c0 18 14 32.1 32 32.1h32V448c0 35.3 28.7 64 64 64H394.8z"/></svg>
